src/images/icon/icon_admin.svg

<svg height="32" viewBox="0 0 32 32" width="32" xmlns="http://www.w3.org/2000/svg"><g fill="none" fill-rule="evenodd"><circle cx="16" cy="16" r="15.5" stroke="#d8e2f1"/><g transform="translate(6 6)"><path d="m9.33707702 1.0017386c1.96586258.11213078 3.50776668 1.70490029 3.57709178 3.6511999l.0019851.19576665v1.69089316c-.0016279 1.37470135-.7661999 2.62842408-1.9732089 3.26300104l-.1843295.09048068.164923.83067897c.0251621.1276265.0698567.2482592.1310072.3585519-.2443315.3507778-.3681663.7690748-.3553152 1.1940768l.0146182.1879202c-.5588596.2491908-.97091509.7691304-1.10086982 1.3818705-.15044308.7729063-.14891337 1.5435296-.00058339 2.2907897l.04381818.1697909c.07821115.2583203.20374727.493586.36819383.6948713l-6.3390227-.0016303c-.30897049 0-.56475893-.2276753-.60871245-.5243906l-.00667254-.0909271v-2.7640074c-.00028159-.5073007.30999471-.9580124.7733667-1.1432213l.11894136-.04065 2.69292304-.7691472c.39934729-.1141709.71100107-.4207522.83476481-.8109017l.03415825-.1329957.16492307-.82944833c-1.25083692-.57159368-2.07496427-1.78761686-2.15167718-3.14941211l-.00586124-.20530025v-1.84595324c-.00046996-.99909025.4040446-1.95571528 1.12117318-2.65143067s1.68563625-1.07111469 2.68436522-1.0404758z" fill="#36435c"/><path d="m16.2634939 11.0218947c.5141952.1801159.9881926.4678791 1.3931841.8464038.1065238.1030741.1594507.2532879.1420318.404557l-.0485722.4650648c-.0391245.3805485.161274.7437878.4951012.8974131l.4083413.1889105c.1333223.0598041.2311366.1829302.2629597.3306814.1102086.5565298.1112136 1.1310009.0033498 1.6878824-.0316322.1486456-.129705.2720809-.2632947.331385l-.4113561.1906695c-.3336992.1535852-.5340719.5166355-.4951012.8970614l.0485722.46612c.0172336.150492-.0354925.3005063-.1416968.4031499-.4038034.3824892-.880236.6707263-1.3978738.8457002-.138012.045029-.2880833.0175894-.4039865-.0731721l-.3604391-.2768577c-.2946122-.2260231-.6945854-.2260231-.9891976 0l-.3634538.2786167c-.1162383.0914651-.2669795.1185528-.4053265.0724685-.5142686-.1801116-.988274-.4682046-1.3931841-.8467556-.1067377-.102879-.1596301-.2535355-.1420317-.404557l.0485722-.4643612c.0391244-.3805485-.161274-.7437878-.4951013-.8974131l-.4086762-.1892623c-.1330647-.0594893-.2307837-.1825312-.2626248-.3306814-.1104466-.5564107-.1115865-1.1306412-.0033498-1.6875306.031494-.1484949.1292931-.2718997.2626248-.331385l.412696-.1906695c.333173-.1540415.5329441-.5169839.4937613-.8970614l-.0479022-.46612c-.0172337-.150492.0354924-.3005063.1416968-.4031499.4037417-.3827417.8801787-.6712213 1.3978738-.8464038.1380119-.0446771.2880832-.0175894.4039865.0738757l.360439.2765059c.2947829.2258484.6944147.2258484.9891976 0l.3634539-.2786167c.1162382-.091465.2669795-.118201.4053264-.0724685zm-1.2634939 1.9781053c-1.1045695 0-2 .8954305-2 2s.8954305 2 2 2 2-.8954305 2-2-.8954305-2-2-2z" fill="#b6c2cd" fill-rule="nonzero"/></g></g></svg>

<?xml version="1.0" encoding="UTF-8"?>
<svg width="32px" height="32px" viewBox="0 0 32 32" version="1.1" xmlns="http://www.w3.org/2000/svg" xmlns:xlink="http://www.w3.org/1999/xlink">
    <g id="Dashboard" stroke="none" stroke-width="1" fill="none" fill-rule="evenodd">
        <g id="00-Menu-交互备份" transform="translate(-473.000000, -230.000000)">
            <g id="编组-22" transform="translate(473.000000, 230.000000)">
                <circle id="icon_admin" stroke="#D8E2F1" cx="16" cy="16" r="15.5"></circle>
                <g id="编组-15" transform="translate(6.000000, 6.000000)">
                    <path d="M9.33707702,1.0017386 C11.3029396,1.11386938 12.8448437,2.70663889 12.9141688,4.6529385 L12.9161539,4.84870515 L12.9161539,6.53959831 C12.914526,7.91429966 12.149954,9.16802239 10.942945,9.80259935 L10.7586155,9.89308003 L10.9235385,10.723759 C10.9487006,10.8513855 10.9933952,10.9720182 11.0545457,11.0823109 C10.8102142,11.4330887 10.6863794,11.8513857 10.6992305,12.2763877 L10.7138487,12.4643079 C10.1549891,12.7134987 9.74293361,13.2334383 9.61297888,13.8461784 C9.4625358,14.6190847 9.46406551,15.389708 9.61239549,16.1369681 L9.65621367,16.306759 C9.73442482,16.5650793 9.85996094,16.800345 10.0244075,17.0016303 L3.6853848,17 C3.37641431,17 3.12062587,16.7723247 3.07667235,16.4756094 L3.06999981,16.3846823 L3.06999981,13.6206749 C3.06971822,13.1133742 3.37999452,12.6626625 3.84336651,12.4774536 L3.96230787,12.4368036 L6.65523091,11.6676564 C7.0545782,11.5534855 7.36623198,11.2469042 7.48999572,10.8567547 L7.52415397,10.723759 L7.68907704,9.89431067 C6.43824012,9.32271699 5.61411277,8.10669381 5.53739986,6.74489856 L5.53153862,6.53959831 L5.53153862,4.69364507 C5.53106866,3.69455482 5.93558322,2.73792979 6.6527118,2.0422144 C7.36984038,1.34649901 8.33834805,0.971099714 9.33707702,1.0017386 Z" id="形状" fill="#36435C"></path>
                    <path d="M16.2634939,11.0218947 C16.7776891,11.2020106 17.2516865,11.4897738 17.656678,11.8682985 C17.7632018,11.9713726 17.8161287,12.1215864 17.7987098,12.2728555 L17.7501376,12.7379203 C17.7110131,13.1184688 17.9114116,13.4817081 18.2452388,13.6353334 L18.6535801,13.8242439 C18.7869024,13.884048 18.8847167,14.0071741 18.9165398,14.1549253 C19.0267484,14.7114551 19.0277534,15.2859262 18.9198896,15.8428077 C18.8882574,15.9914533 18.7901846,16.1148886 18.6565949,16.1741927 L18.2452388,16.3648622 C17.9115396,16.5184474 17.7111669,16.8814977 17.7501376,17.2619236 L17.7987098,17.7280436 C17.8159434,17.8785356 17.7632173,18.0285499 17.657013,18.1311935 C17.2532096,18.5136827 16.776777,18.8019198 16.2591392,18.9768937 C16.1211272,19.0219227 15.9710559,18.9944831 15.8551527,18.9037216 L15.4947136,18.6268639 C15.2001014,18.4008408 14.8001282,18.4008408 14.505516,18.6268639 L14.1420622,18.9054806 C14.0258239,18.9969457 13.8750827,19.0240334 13.7367357,18.9779491 C13.2224671,18.7978375 12.7484617,18.5097445 12.3435516,18.1311935 C12.2368139,18.0283145 12.1839215,17.877658 12.2015199,17.7266365 L12.2500921,17.2622753 C12.2892165,16.8817268 12.0888181,16.5184875 11.7549908,16.3648622 L11.3463146,16.1755999 C11.2132499,16.1161106 11.1155309,15.9930687 11.0836898,15.8449185 C10.9732432,15.2885078 10.9721033,14.7142773 11.08034,14.1573879 C11.111834,14.008893 11.2096331,13.8854882 11.3429648,13.8260029 L11.7556608,13.6353334 C12.0888338,13.4812919 12.2886049,13.1183495 12.2494221,12.738272 L12.2015199,12.272152 C12.1842862,12.12166 12.2370123,11.9716457 12.3432167,11.8690021 C12.7469584,11.4862604 13.2233954,11.1977808 13.7410905,11.0225983 C13.8791024,10.9779212 14.0291737,11.0050089 14.145077,11.096474 L14.505516,11.3729799 C14.8002989,11.5988283 15.1999307,11.5988283 15.4947136,11.3729799 L15.8581675,11.0943632 C15.9744057,11.0028982 16.125147,10.9761622 16.2634939,11.0218947 Z M15,13 C13.8954305,13 13,13.8954305 13,15 C13,16.1045695 13.8954305,17 15,17 C16.1045695,17 17,16.1045695 17,15 C17,13.8954305 16.1045695,13 15,13 Z" id="形状结合" fill="#B6C2CD" fill-rule="nonzero"></path>
                </g>
            </g>
        </g>
    </g>
</svg>
